style-guide/assets/xd-icons-page-small.svg

<svg viewBox="0 0 18 18" xmlns="http://www.w3.org/2000/svg" xmlns:xlink="http://www.w3.org/1999/xlink">
  <path d="M10 12v2.586L12.586 12H10zm-6 4h4v-5a1 1 0 0 1 1-1h5V2H4v14zm5 2H3a1 1 0 0 1-1-1V1a1 1 0 0 1 1-1h12a1 1 0 0 1 1 1v9.992c0 .043-.002.086-.007.128l-.001.003v.006a1.19 1.19 0 0 1-.023.119l-.001.002-.001.006-.001.002v.001a1 1 0 0 1-.254.444s-.002 0-.002.002h-.001l-.002.002-6 6-.003.004-.003.002-.001.001a1.003 1.003 0 0 1-.435.251h-.004a.885.885 0 0 1-.136.027h-.004c-.001.001.005.004-.004.001l-.003.001A1.088 1.088 0 0 1 9 18z"/>
</svg>

<?xml version="1.0" encoding="UTF-8"?>
<svg width="18px" height="18px" viewBox="0 0 18 18" version="1.1" xmlns="http://www.w3.org/2000/svg" xmlns:xlink="http://www.w3.org/1999/xlink">
    <!-- Generator: Sketch 51.3 (57544) - http://www.bohemiancoding.com/sketch -->
    <title>note</title>
    <desc>Created with Sketch.</desc>
    <defs>
        <path d="M10,12 L10,14.586 L12.586,12 L10,12 Z M4,16 L8,16 L8,11 C8,10.447 8.447,10 9,10 L14,10 L14,2 L4,2 L4,16 Z M9,18 L8.992,18 L3,18 C2.447,18 2,17.553 2,17 L2,1 C2,0.447 2.447,0 3,0 L15,0 C15.553,0 16,0.447 16,1 L16,10.992 C16,11.035 15.998,11.078 15.993,11.12 C15.994,11.12 15.992,11.122 15.992,11.123 L15.992,11.126 L15.992,11.129 C15.986,11.169 15.979,11.209 15.969,11.248 C15.969,11.249 15.969,11.25 15.968,11.25 C15.968,11.252 15.967,11.254 15.967,11.256 C15.967,11.257 15.966,11.258 15.966,11.258 L15.966,11.259 C15.923,11.421 15.838,11.572 15.716,11.698 C15.715,11.699 15.713,11.701 15.712,11.703 C15.712,11.703 15.71,11.703 15.71,11.705 L15.709,11.705 C15.708,11.705 15.708,11.707 15.707,11.707 L9.707,17.707 C9.706,17.709 9.705,17.709 9.704,17.711 C9.701,17.712 9.701,17.713 9.701,17.713 C9.7,17.713 9.7,17.713 9.7,17.714 C9.576,17.836 9.426,17.92 9.265,17.965 L9.263,17.965 L9.262,17.965 L9.261,17.965 C9.217,17.978 9.171,17.986 9.125,17.992 L9.124,17.992 L9.121,17.992 C9.12,17.993 9.126,17.996 9.117,17.993 C9.116,17.993 9.115,17.993 9.114,17.994 C9.076,17.998 9.038,18 9,18 Z" id="path-1"></path>
    </defs>
    <g id="note" stroke="none" stroke-width="1" fill="none" fill-rule="evenodd">
        <mask id="mask-2" fill="white">
            <use xlink:href="#path-1"></use>
        </mask>
        <use id="icons/18px/Note" fill="#000000" xlink:href="#path-1"></use>
    </g>
</svg>
